app/[lang]/(home)/(new-home)/assets/sealos-appicons/database.svg

<svg width="16" height="16" viewBox="0 0 16 16" fill="none" xmlns="http://www.w3.org/2000/svg">
<rect width="16" height="16" fill="url(#paint0_linear_94_611)"/>
<path d="M2.52393 5.11646V7.05883L8.00017 7.85752L13.4764 6.49944V5.11646V10.6903L10.3396 11.4955L8.00017 11.3744L5.36779 11.4955L2.52393 10.8013V5.11646Z" fill="url(#paint1_linear_94_611)"/>
<path d="M13.4763 5.27215V4.97075L13.476 4.94252C13.4436 3.54703 11.0044 2.74451 8.00013 2.74451C4.99574 2.74451 2.55612 3.53567 2.52393 4.94252V5.27215H2.52663C2.52483 5.29534 2.52393 5.31872 2.52393 5.34231C2.52393 6.40207 4.47232 7.04973 8.00013 7.04973C11.5279 7.04973 13.4763 6.40207 13.4763 5.34231C13.4763 5.31873 13.4754 5.29534 13.4736 5.27215H13.4763Z" fill="url(#paint2_linear_94_611)"/>
<path d="M2.52401 5.33972V7.4777C2.52388 7.48272 2.52393 7.48775 2.52397 7.49278L2.52401 7.50036C2.52401 8.55886 4.47241 9.41693 8.00021 9.41693C11.528 9.41693 13.4764 8.55886 13.4764 7.50036C13.4764 7.49279 13.4763 7.48524 13.4761 7.4777L13.4764 5.33972C13.1902 6.30466 11.244 7.04964 8.00021 7.04964C4.75642 7.04964 2.81027 6.30466 2.52401 5.33972Z" fill="#FAFAFF"/>
<path d="M2.52401 8.54702V10.6961H2.52658C2.60655 11.8899 4.54651 12.8452 8.00021 12.8452C11.4539 12.8452 13.3939 11.8899 13.4738 10.6961H13.4764V8.54702C13.4764 9.69819 11.528 10.6314 8.00021 10.6314C4.47241 10.6314 2.52401 9.69819 2.52401 8.54702Z" fill="#FAFAFF"/>
<path d="M2.52401 5.33972V7.4777C2.52388 7.48272 2.52393 7.48775 2.52397 7.49278L2.52401 7.50036C2.52401 8.55886 4.47241 9.41693 8.00021 9.41693C11.528 9.41693 13.4764 8.55886 13.4764 7.50036C13.4764 7.49279 13.4763 7.48524 13.4761 7.4777L13.4764 5.33972C13.1902 6.30466 11.244 7.04964 8.00021 7.04964C4.75642 7.04964 2.81027 6.30466 2.52401 5.33972Z" fill="#FAFAFF"/>
<path d="M2.52401 8.54702V10.6961H2.52658C2.60655 11.8899 4.54651 12.8452 8.00021 12.8452C11.4539 12.8452 13.3939 11.8899 13.4738 10.6961H13.4764V8.54702C13.4764 9.69819 11.528 10.6314 8.00021 10.6314C4.47241 10.6314 2.52401 9.69819 2.52401 8.54702Z" fill="#FAFAFF"/>
<path d="M5.60889 12.6624C6.29843 12.7801 7.09749 12.8453 7.9999 12.8453C11.4536 12.8453 13.3936 11.89 13.4735 10.6962H13.4761V8.54714C13.4761 9.69832 11.5277 10.6315 7.9999 10.6315C7.09749 10.6315 6.29843 10.5705 5.60889 10.4603V12.6624Z" fill="url(#paint3_linear_94_611)"/>
<path d="M5.60889 9.25962C6.29843 9.36091 7.09749 9.41705 7.9999 9.41705C11.5277 9.41705 13.4761 8.55898 13.4761 7.50048C13.4761 7.49291 13.476 7.48536 13.4758 7.47782L13.4761 5.33984C13.1898 6.30478 11.2437 7.04976 7.9999 7.04976C7.10058 7.04976 6.301 6.9925 5.60889 6.88916V9.25962Z" fill="url(#paint4_linear_94_611)"/>
<path d="M3.30225 7.4401C3.30225 7.18457 3.4969 7.04827 3.73703 7.13566V7.13566C3.97715 7.22306 4.1718 7.50106 4.1718 7.75659V7.75659C4.1718 8.01213 3.97715 8.14843 3.73703 8.06103V8.06103C3.4969 7.97363 3.30225 7.69563 3.30225 7.4401V7.4401Z" fill="url(#paint5_linear_94_611)"/>
<path d="M3.30225 10.8277C3.30225 10.5721 3.4969 10.4358 3.73703 10.5232V10.5232C3.97715 10.6106 4.1718 10.8886 4.1718 11.1442V11.1442C4.1718 11.3997 3.97715 11.536 3.73703 11.4486V11.4486C3.4969 11.3612 3.30225 11.0832 3.30225 10.8277V10.8277Z" fill="url(#paint6_linear_94_611)"/>
<defs>
<linearGradient id="paint0_linear_94_611" x1="16" y1="0" x2="0" y2="16" gradientUnits="userSpaceOnUse">
<stop stop-color="#70CCBB"/>
<stop offset="1" stop-color="#1EBB9E"/>
</linearGradient>
<linearGradient id="paint1_linear_94_611" x1="8.00017" y1="5.11646" x2="8.00017" y2="11.4955" gradientUnits="userSpaceOnUse">
<stop stop-color="#82DEAB"/>
<stop offset="1" stop-color="#82DEAB" stop-opacity="0.5"/>
</linearGradient>
<linearGradient id="paint2_linear_94_611" x1="8.00013" y1="2.74451" x2="8.00013" y2="7.04973" gradientUnits="userSpaceOnUse">
<stop stop-color="#B7E0CD"/>
<stop offset="1" stop-color="#7FE2AB"/>
</linearGradient>
<linearGradient id="paint3_linear_94_611" x1="13.4761" y1="8.70777" x2="5.60889" y2="9.0926" gradientUnits="userSpaceOnUse">
<stop stop-color="#D6EAF0"/>
<stop offset="1" stop-color="#D6EAF0" stop-opacity="0"/>
</linearGradient>
<linearGradient id="paint4_linear_94_611" x1="13.4761" y1="8.70777" x2="5.60889" y2="9.0926" gradientUnits="userSpaceOnUse">
<stop stop-color="#D6EAF0"/>
<stop offset="1" stop-color="#D6EAF0" stop-opacity="0"/>
</linearGradient>
<linearGradient id="paint5_linear_94_611" x1="3.73703" y1="7.13566" x2="3.43962" y2="7.95278" gradientUnits="userSpaceOnUse">
<stop stop-color="#40714C"/>
<stop offset="1" stop-color="#65C1B0"/>
</linearGradient>
<linearGradient id="paint6_linear_94_611" x1="3.73703" y1="10.5232" x2="3.43962" y2="11.3404" gradientUnits="userSpaceOnUse">
<stop stop-color="#40714C"/>
<stop offset="1" stop-color="#65C1B0"/>
</linearGradient>
</defs>
</svg>

<svg xmlns="http://www.w3.org/2000/svg" fill="none" viewBox="0 0 16 16">
  <path fill="url(#a)" d="M0 0h16v16H0z" />
  <path
    fill="url(#b)"
    d="M2.52 5.12v1.94l5.48.8 5.48-1.36V5.12v5.57l-3.14.8L8 11.38l-2.63.13-2.85-.7V5.12Z"
  />
  <path
    fill="url(#c)"
    d="M13.48 5.27V4.94C13.44 3.54 11 2.74 8 2.74c-3 0-5.44.8-5.48 2.2v.33a.9.9 0 0 0 0 .07C2.52 6.4 4.47 7.05 8 7.05c3.53 0 5.48-.65 5.48-1.7a.9.9 0 0 0 0-.08Z"
  />
  <path
    fill="#FAFAFF"
    d="M2.52 5.34V7.5c0 1.06 1.95 1.92 5.48 1.92 3.53 0 5.48-.86 5.48-1.92V5.34c-.29.96-2.24 1.71-5.48 1.71S2.81 6.3 2.52 5.34Z"
  />
  <path
    fill="#FAFAFF"
    d="M2.52 8.55v2.15c.09 1.19 2.03 2.15 5.48 2.15 3.45 0 5.4-.96 5.47-2.15V8.55c0 1.15-1.94 2.08-5.47 2.08S2.52 9.7 2.52 8.55Z"
  />
  <path
    fill="#FAFAFF"
    d="M2.52 5.34V7.5c0 1.06 1.95 1.92 5.48 1.92 3.53 0 5.48-.86 5.48-1.92V5.34c-.29.96-2.24 1.71-5.48 1.71S2.81 6.3 2.52 5.34Z"
  />
  <path
    fill="#FAFAFF"
    d="M2.52 8.55v2.15c.09 1.19 2.03 2.15 5.48 2.15 3.45 0 5.4-.96 5.47-2.15V8.55c0 1.15-1.94 2.08-5.47 2.08S2.52 9.7 2.52 8.55Z"
  />
  <path
    fill="url(#d)"
    d="M5.6 12.66c.7.12 1.5.19 2.4.19 3.45 0 5.4-.96 5.47-2.15V8.55c0 1.15-1.94 2.08-5.47 2.08-.9 0-1.7-.06-2.4-.17v2.2Z"
  />
  <path
    fill="url(#e)"
    d="M5.6 9.26c.7.1 1.5.16 2.4.16 3.53 0 5.48-.86 5.48-1.92V5.34c-.29.96-2.24 1.71-5.48 1.71-.9 0-1.7-.06-2.4-.16v2.37Z"
  />
  <path
    fill="url(#f)"
    d="M3.3 7.44c0-.26.2-.4.44-.3a.7.7 0 0 1 .43.62c0 .25-.2.39-.43.3a.7.7 0 0 1-.44-.62Z"
  />
  <path
    fill="url(#g)"
    d="M3.3 10.83c0-.26.2-.4.44-.3a.7.7 0 0 1 .43.61c0 .26-.2.4-.43.3a.7.7 0 0 1-.44-.61Z"
  />
  <defs>
    <linearGradient
      id="a"
      x1="16"
      x2="0"
      y1="0"
      y2="16"
      gradientUnits="userSpaceOnUse"
    >
      <stop stop-color="#70CCBB" />
      <stop offset="1" stop-color="#1EBB9E" />
    </linearGradient>
    <linearGradient
      id="b"
      x1="8"
      x2="8"
      y1="5.12"
      y2="11.5"
      gradientUnits="userSpaceOnUse"
    >
      <stop stop-color="#82DEAB" />
      <stop offset="1" stop-color="#82DEAB" stop-opacity=".5" />
    </linearGradient>
    <linearGradient
      id="c"
      x1="8"
      x2="8"
      y1="2.74"
      y2="7.05"
      gradientUnits="userSpaceOnUse"
    >
      <stop stop-color="#B7E0CD" />
      <stop offset="1" stop-color="#7FE2AB" />
    </linearGradient>
    <linearGradient
      id="d"
      x1="13.48"
      x2="5.61"
      y1="8.71"
      y2="9.09"
      gradientUnits="userSpaceOnUse"
    >
      <stop stop-color="#D6EAF0" />
      <stop offset="1" stop-color="#D6EAF0" stop-opacity="0" />
    </linearGradient>
    <linearGradient
      id="e"
      x1="13.48"
      x2="5.61"
      y1="8.71"
      y2="9.09"
      gradientUnits="userSpaceOnUse"
    >
      <stop stop-color="#D6EAF0" />
      <stop offset="1" stop-color="#D6EAF0" stop-opacity="0" />
    </linearGradient>
    <linearGradient
      id="f"
      x1="3.74"
      x2="3.44"
      y1="7.14"
      y2="7.95"
      gradientUnits="userSpaceOnUse"
    >
      <stop stop-color="#40714C" />
      <stop offset="1" stop-color="#65C1B0" />
    </linearGradient>
    <linearGradient
      id="g"
      x1="3.74"
      x2="3.44"
      y1="10.52"
      y2="11.34"
      gradientUnits="userSpaceOnUse"
    >
      <stop stop-color="#40714C" />
      <stop offset="1" stop-color="#65C1B0" />
    </linearGradient>
  </defs>
</svg>
